resources/svg/react.svg

<svg xmlns="http://www.w3.org/2000/svg" viewBox="0 0 15 15" fill="currentColor"><path fill-rule="evenodd" clip-rule="evenodd" d="M5.31537 1.83658C4.91591 1.72069 4.6196 1.75177 4.40406 1.86852C4.18851 1.98528 4.00061 2.21648 3.87946 2.61438C3.75743 3.01517 3.71578 3.55024 3.77508 4.1963C3.78469 4.30099 3.79689 4.40794 3.81168 4.51697C4.33487 4.38401 4.89711 4.279 5.48788 4.20569C5.89742 3.63189 6.327 3.11445 6.76281 2.66575C6.74097 2.64805 6.71917 2.63058 6.69739 2.61335C6.18865 2.21073 5.71773 1.95332 5.31537 1.83658ZM7.49994 1.9775C7.43924 1.92661 7.37857 1.87716 7.31796 1.8292C6.746 1.37655 6.16025 1.04047 5.59401 0.876189C5.02487 0.711062 4.44065 0.711415 3.92776 0.989234C3.41488 1.26705 3.09543 1.7562 2.92282 2.32312C2.75109 2.88714 2.71259 3.56136 2.77927 4.28771C2.7949 4.45796 2.81643 4.63245 2.84379 4.81065C2.67409 4.87146 2.51042 4.93563 2.35329 5.00297C1.68286 5.2903 1.10837 5.64527 0.694221 6.06491C0.277951 6.4867 0 7.00057 0 7.58387C0 8.16716 0.27795 8.68103 0.694221 9.10282C1.10837 9.52246 1.68286 9.87743 2.35329 10.1648C2.51042 10.2321 2.67408 10.2963 2.84378 10.3571C2.81642 10.5353 2.79488 10.7098 2.77925 10.8801C2.71257 11.6064 2.75107 12.2806 2.9228 12.8447C3.09541 13.4116 3.41486 13.9007 3.92774 14.1785C4.44063 14.4564 5.02485 14.4567 5.59399 14.2916C6.16023 14.1273 6.74598 13.7912 7.31794 13.3386C7.37856 13.2906 7.43923 13.2412 7.49994 13.1903C7.56065 13.2412 7.62132 13.2906 7.68193 13.3386C8.2539 13.7912 8.83965 14.1273 9.40589 14.2916C9.97503 14.4567 10.5592 14.4564 11.0721 14.1785C11.585 13.9007 11.9045 13.4116 12.0771 12.8447C12.2488 12.2806 12.2873 11.6064 12.2206 10.8801C12.205 10.7098 12.1835 10.5353 12.1561 10.3571C12.3258 10.2963 12.4895 10.2321 12.6467 10.1648C13.3171 9.87743 13.8916 9.52246 14.3058 9.10282C14.722 8.68103 15 8.16716 15 7.58387C15 7.00057 14.722 6.4867 14.3058 6.06491C13.8916 5.64527 13.3171 5.2903 12.6467 5.00297C12.4895 4.93562 12.3258 4.87144 12.1561 4.81061C12.1834 4.63242 12.205 4.45795 12.2206 4.28771C12.2873 3.56136 12.2488 2.88714 12.0771 2.32312C11.9045 1.7562 11.585 1.26705 11.0721 0.989234C10.5592 0.711415 9.97501 0.711062 9.40587 0.876189C8.83963 1.04047 8.25388 1.37655 7.68191 1.8292C7.62131 1.87716 7.56064 1.92661 7.49994 1.9775ZM7.49994 3.34216C7.27514 3.57233 7.05016 3.82461 6.82771 4.09712C7.04936 4.08834 7.27361 4.08387 7.5 4.08387C7.72635 4.08387 7.95056 4.08834 8.17216 4.09712C7.94972 3.82461 7.72474 3.57233 7.49994 3.34216ZM9.51199 4.20567C9.10245 3.63188 8.67287 3.11444 8.23707 2.66575C8.25891 2.64805 8.28071 2.63058 8.30249 2.61335C8.81123 2.21073 9.28215 1.95332 9.68451 1.83658C10.084 1.72069 10.3803 1.75177 10.5958 1.86852C10.8114 1.98528 10.9993 2.21648 11.1204 2.61438C11.2424 3.01517 11.2841 3.55024 11.2248 4.1963C11.2152 4.30098 11.203 4.40792 11.1882 4.51694C10.665 4.38399 10.1028 4.27898 9.51199 4.20567ZM8.94935 5.15034C8.484 5.10693 7.9991 5.08387 7.5 5.08387C7.00085 5.08387 6.51591 5.10693 6.05052 5.15035C5.79069 5.53887 5.53944 5.95428 5.30171 6.39316C5.08522 6.79282 4.89116 7.19123 4.71966 7.58387C4.89117 7.97652 5.08524 8.37494 5.30173 8.77462C5.53945 9.21348 5.7907 9.62888 6.05051 10.0174C6.5159 10.0608 7.00085 10.0839 7.5 10.0839C7.99911 10.0839 8.48401 10.0608 8.94936 10.0174C9.20918 9.62889 9.46042 9.21349 9.69815 8.77462C9.91464 8.37494 10.1087 7.97652 10.2802 7.58387C10.1087 7.19124 9.91465 6.79282 9.69817 6.39316C9.46043 5.95427 9.20918 5.53886 8.94935 5.15034ZM10.7728 6.28838C10.7096 6.16452 10.6445 6.04064 10.5775 5.91687C10.4696 5.71781 10.3589 5.52276 10.2456 5.33206C10.5062 5.38167 10.7573 5.43803 10.9978 5.5005C10.9346 5.75638 10.8596 6.01957 10.7728 6.28838ZM10.7728 8.87936C10.7096 9.00323 10.6445 9.12712 10.5774 9.25091C10.4696 9.44995 10.3589 9.64498 10.2456 9.83568C10.5062 9.78606 10.7573 9.72969 10.9978 9.66722C10.9346 9.41135 10.8596 9.14816 10.7728 8.87936ZM11.9533 9.36619C11.8083 8.7925 11.6114 8.19354 11.3649 7.58386C11.6114 6.97419 11.8083 6.37523 11.9533 5.80154C12.0563 5.84048 12.1561 5.8807 12.2528 5.92212C12.8491 6.17768 13.2997 6.46916 13.594 6.76735C13.8862 7.06339 14 7.33873 14 7.58387C14 7.829 13.8862 8.10434 13.594 8.40038C13.2997 8.69857 12.8491 8.99005 12.2528 9.24561C12.1561 9.28703 12.0563 9.32725 11.9533 9.36619ZM11.1882 10.6508C10.665 10.7837 10.1028 10.8888 9.51201 10.9621C9.10247 11.5359 8.67288 12.0533 8.23707 12.502C8.25891 12.5197 8.28072 12.5372 8.30251 12.5544C8.81125 12.957 9.28217 13.2145 9.68453 13.3312C10.084 13.4471 10.3803 13.416 10.5958 13.2993C10.8114 13.1825 10.9993 12.9513 11.1204 12.5534C11.2425 12.1526 11.2841 11.6175 11.2248 10.9715C11.2152 10.8668 11.203 10.7598 11.1882 10.6508ZM7.49994 11.8256C7.72475 11.5954 7.94973 11.3431 8.17218 11.0706C7.95057 11.0794 7.72635 11.0839 7.5 11.0839C7.27361 11.0839 7.04935 11.0794 6.82769 11.0706C7.05015 11.3431 7.27513 11.5954 7.49994 11.8256ZM4.75426 9.83565C4.64098 9.64497 4.53025 9.44994 4.42244 9.25091C4.35539 9.12712 4.29025 9.00323 4.22704 8.87936C4.14031 9.14815 4.06531 9.41133 4.00208 9.66719C4.24253 9.72967 4.49368 9.78603 4.75426 9.83565ZM3.81167 10.6508C4.33485 10.7837 4.8971 10.8887 5.48786 10.962C5.8974 11.5358 6.327 12.0533 6.76282 12.502C6.74097 12.5197 6.71915 12.5372 6.69737 12.5544C6.18863 12.957 5.71771 13.2145 5.31535 13.3312C4.91589 13.4471 4.61958 13.416 4.40404 13.2993C4.18849 13.1825 4.00059 12.9513 3.87944 12.5534C3.75741 12.1526 3.71576 11.6175 3.77506 10.9715C3.78468 10.8668 3.79688 10.7598 3.81167 10.6508ZM3.04656 9.36615C3.19156 8.79247 3.38844 8.19352 3.63494 7.58387C3.38844 6.97421 3.19157 6.37526 3.04656 5.80158C2.94366 5.84051 2.84383 5.88071 2.74721 5.92212C2.15089 6.17768 1.70026 6.46916 1.40597 6.76735C1.1138 7.06339 1 7.33873 1 7.58387C1 7.829 1.1138 8.10434 1.40597 8.40038C1.70026 8.69857 2.15089 8.99005 2.74721 9.24561C2.84383 9.28702 2.94366 9.32722 3.04656 9.36615ZM4.00208 5.50053C4.06531 5.7564 4.14031 6.01958 4.22704 6.28837C4.29024 6.16452 4.35538 6.04065 4.42242 5.91687C4.53024 5.71782 4.64098 5.52278 4.75427 5.33208C4.49369 5.3817 4.24254 5.43806 4.00208 5.50053ZM6 7.58387C6 6.75544 6.67157 6.08387 7.5 6.08387C8.32843 6.08387 9 6.75544 9 7.58387C9 8.41229 8.32843 9.08387 7.5 9.08387C6.67157 9.08387 6 8.41229 6 7.58387ZM7.5 7.08387C7.22386 7.08387 7 7.30772 7 7.58387C7 7.86001 7.22386 8.08387 7.5 8.08387C7.77614 8.08387 8 7.86001 8 7.58387C8 7.30772 7.77614 7.08387 7.5 7.08387Z" fill="black"/></svg>

<svg xmlns="http://www.w3.org/2000/svg" viewBox="0 0 15 15" fill="currentColor"><path fill-rule="evenodd" clip-rule="evenodd" d="M5.315 1.837c-.4-.116-.695-.085-.91.032-.216.116-.404.347-.526.745-.122.401-.163.936-.104 1.582.01.105.022.212.037.321a13.654 13.654 0 011.676-.311 13.28 13.28 0 011.275-1.54 7.111 7.111 0 00-.066-.053c-.508-.402-.98-.66-1.382-.776zm2.185.14c-.06-.05-.121-.1-.182-.148-.572-.452-1.158-.789-1.724-.953C5.024.711 4.441.711 3.928.99c-.513.278-.833.767-1.005 1.334-.172.564-.21 1.238-.144 1.965.016.17.037.344.065.523-.17.06-.334.125-.49.192-.671.287-1.246.642-1.66 1.062C.278 6.487 0 7 0 7.584c0 .583.278 1.097.694 1.519.414.42.989.774 1.66 1.062.156.067.32.131.49.192a8.672 8.672 0 00-.065.523c-.066.726-.028 1.4.144 1.965.172.567.492 1.056 1.005 1.333.513.278 1.097.279 1.666.114.566-.165 1.152-.5 1.724-.953l.182-.149c.06.051.121.1.182.149.572.452 1.158.788 1.724.953.569.165 1.153.164 1.666-.114.513-.277.833-.766 1.005-1.333.172-.564.21-1.239.144-1.965a8.616 8.616 0 00-.065-.523 8.2 8.2 0 00.49-.192c.671-.288 1.246-.643 1.66-1.062.416-.422.694-.936.694-1.52 0-.582-.278-1.096-.694-1.518-.414-.42-.989-.775-1.66-1.062a8.706 8.706 0 00-.49-.192c.027-.179.049-.353.065-.523.066-.727.028-1.4-.144-1.965-.172-.567-.492-1.056-1.005-1.334C10.56.711 9.975.711 9.406.876c-.566.164-1.152.5-1.724.953l-.182.149zm0 1.365c-.225.23-.45.483-.672.755a16.99 16.99 0 011.344 0 11.385 11.385 0 00-.672-.755zm2.012.864c-.41-.574-.84-1.092-1.275-1.54l.065-.053c.51-.402.98-.66 1.383-.776.399-.116.695-.085.91.032.216.116.404.347.525.745.122.401.164.936.105 1.582-.01.105-.022.212-.037.32a13.655 13.655 0 00-1.676-.31zm-.563.944a15.628 15.628 0 00-2.898 0A15.627 15.627 0 004.72 7.584a15.693 15.693 0 001.33 2.433 15.634 15.634 0 002.9 0 15.63 15.63 0 001.33-2.433A15.691 15.691 0 008.95 5.15zm1.824 1.138a17.244 17.244 0 00-.527-.956c.26.05.511.106.752.168-.063.256-.138.52-.225.788zm0 2.591a16.837 16.837 0 01-.527.957c.26-.05.511-.106.752-.169a11.69 11.69 0 00-.225-.788zm1.18.487a13.805 13.805 0 00-.588-1.782c.246-.61.443-1.209.588-1.782.103.038.203.079.3.12.596.256 1.047.547 1.341.845.292.296.406.572.406.817s-.114.52-.406.816c-.294.299-.745.59-1.341.846a7.467 7.467 0 01-.3.12zm-.765 1.285a13.57 13.57 0 01-1.676.311c-.41.574-.84 1.091-1.275 1.54l.066.052c.508.403.98.66 1.382.777.399.116.695.085.91-.032.216-.117.404-.348.525-.746.123-.4.164-.936.105-1.582a7.422 7.422 0 00-.037-.32zM7.5 11.826c.225-.23.45-.483.672-.755a16.945 16.945 0 01-1.344 0c.222.272.447.524.672.755zm-2.746-1.99a16.972 16.972 0 01-.527-.957c-.087.27-.162.532-.225.788.24.063.492.119.752.169zm-.942.815a13.57 13.57 0 001.676.311c.41.574.839 1.091 1.275 1.54a6.761 6.761 0 01-.066.052c-.508.403-.98.66-1.382.777-.4.116-.695.085-.911-.032-.216-.117-.403-.348-.525-.746-.122-.4-.163-.936-.104-1.582a7.47 7.47 0 01.037-.32zm-.765-1.285c.145-.574.341-1.172.588-1.782a13.806 13.806 0 01-.588-1.782 8.518 8.518 0 00-.3.12c-.596.256-1.047.547-1.341.845-.292.296-.406.572-.406.817s.114.52.406.816c.294.299.745.59 1.341.846.097.041.197.081.3.12zm.955-3.865c.063.255.138.519.225.787a17.116 17.116 0 01.527-.956c-.26.05-.511.106-.752.169zM6 7.584a1.5 1.5 0 113 0 1.5 1.5 0 01-3 0zm1.5-.5a.5.5 0 100 1 .5.5 0 000-1z" fill="currentColor"/></svg>
